icons/svg/icons8/blunderbuss.svg

<svg width="26" height="26" viewBox="0 0 26 26" fill="none" xmlns="http://www.w3.org/2000/svg">
<path d="M22.5839 5.52802C22.9529 6.29202 23.4179 8.06902 21.5669 9.28001C16.9629 12.294 11.4699 16.142 10.0579 17.113C9.26187 17.659 9.11787 18.13 9.03887 18.752C8.77687 20.859 9.56887 23.074 5.36587 25.729C4.59987 26.213 4.15087 25.7 3.58987 25.139C3.02887 24.578 1.51087 23.039 1.10887 22.637C0.259873 21.786 0.208873 21.307 1.22487 20.641C2.24087 19.974 3.88287 18.998 5.39787 17.028C6.14087 16.06 6.16587 15.188 6.15987 14.44C7.49087 14.366 8.11187 13.35 8.11187 13.35C8.11187 13.35 6.91387 13.852 6.09887 13.613C6.16387 13.249 6.42687 12.809 6.81687 12.541C8.52187 11.37 11.1019 9.59002 11.1019 9.59002C11.1019 9.59002 11.6949 9.24202 12.0189 9.71502C12.1749 9.94402 12.3509 10.167 12.4799 10.368C12.7389 10.773 13.2859 11.928 15.2869 10.556C18.3769 8.43302 22.5839 5.52802 22.5839 5.52802Z" fill="#333333"/>
<path d="M6.61804 13.085C6.13104 13.085 4.75504 13.109 4.54004 11" stroke="#333333" stroke-width="1.1442" stroke-miterlimit="10" stroke-linecap="round" stroke-linejoin="round"/>
<path d="M3.45117 9.918C3.45117 9.918 4.15517 11.807 6.61817 10.974" stroke="#333333" stroke-width="1.1442" stroke-miterlimit="10" stroke-linecap="round" stroke-linejoin="round"/>
<path d="M10.6641 18.434C10.6371 18.213 10.4361 18.055 10.2111 18.082C8.84007 18.256 8.63307 17.342 8.61407 17.236C8.57807 17.015 8.37107 16.867 8.15307 16.9C7.93207 16.935 7.78007 17.142 7.81507 17.363C7.89107 17.853 8.30807 18.65 9.33707 18.861C9.61507 18.92 9.93907 18.933 10.3131 18.886C10.5341 18.859 10.6911 18.656 10.6641 18.434Z" fill="#333333"/>
<path d="M12.9521 8.77399L20.1011 3.86399C20.1011 3.86399 21.7971 1.96999 22.0071 0.515989C22.0221 0.410989 21.9411 -0.259011 22.4521 0.466989C22.7001 0.818989 24.8441 3.91399 25.0091 4.16199C25.1741 4.40999 25.1441 4.53099 24.8951 4.52299C24.1401 4.49799 22.4571 4.55699 21.1581 5.43499C20.2031 6.07999 17.1501 8.43799 15.6801 9.30199C14.2081 10.167 13.8521 9.84999 12.9521 8.77399Z" fill="#333333"/>
<path d="M8.48486 21.016C8.48486 21.016 9.87286 20.181 11.4209 19.313C12.6249 18.637 12.3899 16.084 12.3899 14.762" stroke="#333333" stroke-miterlimit="10"/>
</svg>

<?xml version="1.0" encoding="utf-8"?>
<!-- Generator: Adobe Illustrator 15.0.0, SVG Export Plug-In . SVG Version: 6.00 Build 0)  -->
<!DOCTYPE svg PUBLIC "-//W3C//DTD SVG 1.1//EN" "http://www.w3.org/Graphics/SVG/1.1/DTD/svg11.dtd">
<svg version="1.1" id="Layer_1" xmlns="http://www.w3.org/2000/svg" xmlns:xlink="http://www.w3.org/1999/xlink" x="0px" y="0px"
	 width="26px" height="26px" viewBox="0 0 26 26" enable-background="new 0 0 26 26" xml:space="preserve">
<rect fill="none" width="26" height="26"/>
<path fill="#333333" d="M22.584,5.528c0.369,0.764,0.834,2.541-1.017,3.752c-4.604,3.014-10.097,6.862-11.509,7.833
	c-0.796,0.546-0.94,1.017-1.019,1.639c-0.262,2.107,0.53,4.322-3.673,6.977C4.6,26.213,4.151,25.7,3.59,25.139
	c-0.561-0.561-2.079-2.1-2.481-2.502c-0.849-0.851-0.9-1.33,0.116-1.996c1.016-0.667,2.658-1.643,4.173-3.613
	c0.743-0.968,0.768-1.84,0.762-2.588c1.331-0.074,1.952-1.09,1.952-1.09s-1.198,0.502-2.013,0.263
	c0.065-0.364,0.328-0.804,0.718-1.072c1.705-1.171,4.285-2.951,4.285-2.951s0.593-0.348,0.917,0.125
	c0.156,0.229,0.332,0.452,0.461,0.653c0.259,0.405,0.806,1.56,2.807,0.188C18.377,8.433,22.584,5.528,22.584,5.528z"/>
<path fill="none" stroke="#333333" stroke-width="1.1442" stroke-linecap="round" stroke-linejoin="round" stroke-miterlimit="10" d="
	M6.618,13.085c-0.487,0-1.863,0.024-2.078-2.085"/>
<path fill="none" stroke="#333333" stroke-width="1.1442" stroke-linecap="round" stroke-linejoin="round" stroke-miterlimit="10" d="
	M3.451,9.918c0,0,0.704,1.889,3.167,1.056"/>
<path fill="#333333" d="M10.664,18.434c-0.027-0.221-0.228-0.379-0.453-0.352c-1.371,0.174-1.578-0.74-1.597-0.846
	c-0.036-0.221-0.243-0.369-0.461-0.336c-0.221,0.035-0.373,0.242-0.338,0.463c0.076,0.49,0.493,1.287,1.522,1.498
	c0.278,0.059,0.602,0.072,0.976,0.025C10.534,18.859,10.691,18.656,10.664,18.434z"/>
<path fill="#333333" d="M12.952,8.774l7.149-4.91c0,0,1.696-1.894,1.906-3.348c0.015-0.105-0.066-0.775,0.445-0.049
	c0.248,0.352,2.392,3.447,2.557,3.695s0.135,0.369-0.114,0.361c-0.755-0.025-2.438,0.034-3.737,0.912
	C20.203,6.08,17.15,8.438,15.68,9.302C14.208,10.167,13.852,9.85,12.952,8.774z"/>
<path fill="none" stroke="#333333" stroke-miterlimit="10" d="M8.485,21.016c0,0,1.388-0.835,2.936-1.703
	c1.204-0.676,0.969-3.229,0.969-4.551"/>
</svg>
